!!!COM: Vivaldi, Antonio Lucio
!!!CDT: 1678/03/04-1741/08/28
!!!OPR: 12 Sonatas for Violin and Basso continuo
!!!OTL: Sonata in E minor, op. @{OPS}, no. @{ONM} (@{SCT})
!!!OPS: 2
!!!ONM: 9
!!!OMV: 1. Preludio
!!!SCT: RV 16
!!!SCA: Antonio Vivaldi: Thematisch-systematisches Verzeichnis seiner Werke (Ryom-Verzeichnis)
!!!OMD: Andante
!!!key: e
**kern	**fb	**kern
*part2	*	*part1
*staff2	*	*staff1
*ICklav	*	*ICstr
*Icemba	*	*Ivioln
*I"Basso continuo	*	*I"Violino
*I'bc	*	*I'v
*>[A,A,B,B]	*>[A,A,B,B]	*>[A,A,B,B]
*>norep[A,B]	*>norep[A,B]	*>norep[A,B]
*>A	*>A	*>A
*clefF4	*	*clefG2
*k[f#]	*	*k[f#]
*e:	*	*e:
*M3/4	*	*M3/4
*MM70	*	*MM70
=1	=1	=1
2E\	.	4r
.	.	4ee\
4r	.	4e/
=2	=2	=2
2.r	.	4cc\
.	.	4d#X/
.	.	4b\
=3	=3	=3
4r	.	8.g/L
.	.	16f#y/Jk
4e\	.	4e/
4E\	.	8r
.	.	(16gg\LL
.	.	16ff#y\JJ)
=4	=4	=4
4c\	.	8ee\L
.	.	(16dd\L
.	.	16cc\JJ)
4D#X\	6	8b\L
.	.	8ff#y\J
4B\	7 #	8dd#X\L
.	.	(16cc#X\L
.	.	16b\JJ)
=5	=5	=5
8.G\L	6	4ee\
16F#y\Jk	.	.
4E\	.	8r
.	.	8bb\
4r	.	(16gg\LL
.	.	16ff#y\)
.	.	(16ee\
.	.	16dd\JJ)
=6	=6	=6
8r	.	4.cc\
8A\	.	.
4AA/	.	.
.	.	8aa\
4r	.	(16ff#y\LL
.	.	16ee\)
.	.	(16dd\
.	.	16cc\JJ)
!!LO:LB:g=original
=7	=7	=7
8r	.	4.b\
8G\	.	.
4GG/	.	.
.	.	8gg\
4r	.	(16ee\LL
.	.	16dd\)
.	.	(16cc\
.	.	16b\JJ)
=8	=8	=8
2AA/	.	8a\L
.	.	(16cc\L
.	.	16b\JJ)
.	.	8a/L
.	.	8g/
4r	.	8f#y/
.	.	8e/J
=9	=9	=9
2BB/	#	8d#X/L
.	.	(16a/L
.	.	16g/JJ)
.	.	8f#y/L
.	.	8e/
4r	.	8d#y/
.	.	8c#X/J
=10	=10	=10
8BB\L	#	(4B/
(16A\L	.	.
16G\JJ)	.	.
8F#y\L	6#/	4d#X/)
8E\	.	.
8D#X\	6	4f#y/
8C#X\J	.	.
=11	=11	=11
8BB\L	#	(4b\
(16A\L	.	.
16G\JJ)	.	.
8F#y\L	6#/	4dd#X\)
8E\	.	.
8D#X\	6	4ff#y\
8C#X\J	.	.
=12	=12	=12
2BB/	7 #	4.aa\
.	.	8b\
4E\	.	8gg\L
.	.	8ee\J
=13	=13	=13
4.A\	6nr	8ff\L
.	.	(16aa\L
.	.	16gg\JJ)
.	.	8aa\L
8B\	#	8dd#X\
4c\	6	8ee\
.	.	8cc\J
!!LO:LB:g=original
=14	=14	=14
4G\	6	8b/L
.	.	(16a/L
.	.	16g/JJ)
4A\	6 5	8f#y/L
.	.	8e/
4B\	#	8B/
.	.	8dd#X/J
=15	=15	=15
4E\	.	4ee\
4e\	.	4r
4E\	.	4r
=16	=16	=16
4c\	.	2.r
4D#X\	6	.
4B\	7 #	.
=17	=17	=17
8.G\L	6	4r
16F#y\Jk	.	.
4E\	.	4bb\
4r	.	4b\
=18	=18	=18
4E\	.	4gg\
4F#y\	#	4a#X/
4AA#X/	6	4ff#y\
=19	=19	=19
4BB/	.	8.dd\L
.	.	16cc#X\Jk
8.B\L	.	4b\
16c#X\Jk	.	.
[4d\	6	8.bb\L
.	.	16aa\Jk
=20	=20	=20
4d\]	4#| 2	8gg#X\L
.	.	(16ff#y\L
.	.	16ee\JJ)
[2cn\	6	8aa\L
.	.	8ee\
.	.	8aa\
.	.	8gg\J
=21	=21	=21
4c\]	4 2	8ff#y\L
.	.	(16ee\L
.	.	16dd\JJ)
4B\	6	8gg\L
.	.	8dd\
4G\	.	8b\
.	.	8g\J
!!LO:LB:g=original
=22	=22	=22
4A\	.	8cc\L
.	.	8a\
4F#y\	6 5	8d\
.	.	8cc\
4D\	7 5	8aa\
.	.	8cc\J
=23	=23	=23
4G\	4	8cc\LT
.	3	(16b\L
.	.	16a\JJ)
4r	.	8b\L
.	.	8b\
4E\	.	8gg\
.	.	8b\J
=24	=24	=24
4F#y\	6#/	8a/L
.	.	8f#y/
4D#X\	6 5	8B/
.	.	8a/
4BB/	7 #	8ff#y/
.	.	8a/J
=25	=25	=25
2E\	4	8a/LT
.	.	(16g/L
.	.	16f#y/JJ)
.	3	(8g/L
.	.	8e/)
4r	.	(8b/
.	.	8g/J)
=26	=26	=26
2E\	.	(8ee\L
.	.	8b\J)
.	.	(16gg\LL
.	.	16ff#y\
.	.	16ee\
.	.	16dd\JJ)
4r	.	8cc#X\L
.	.	8b\J
=27	=27	=27
2.F#y\	#	8.aa#X\L
.	.	16gg#X\Jk
.	.	8ff#y\L
.	.	8ee\
.	.	8dd\
.	.	8cc#X\J
!!LO:LB:g=original
=28	=28	=28
4G\	6	8b\L
.	.	8bb\
4E\	6#/ 5	8cc#X\
.	.	8bb\
4F#y\	#	8f#y\
.	.	8aa#X\J
=29	=29	=29
8.B\L	#	2.B/
16cn\Jk	.	.
8B\L	.	.
8A\	.	.
8G\	.	.
8F#y\J	.	.
=30:|!|:	=30:|!|:	=30:|!|:
*>B	*>B	*>B
2E\	#	4r
.	.	4gg#X\
4r	.	4ee\
=31	=31	=31
8E\L	7 #	2.dd\
(16d\L	.	.
16c\JJ)	.	.
8B\L	5 3	.
8A\	.	.
8G#X\	.	.
8F#y\J	.	.
=32	=32	=32
8E\L	7 #	4bb\
(16d\L	.	.
16c\JJ)	.	.
8B\L	.	4.dd\
8A\J	.	.
8G#X\L	.	.
16F#y\L	.	8ee\
16E\JJ	.	.
=33	=33	=33
4A\	#	8cc#X\L
.	.	(16a\L
.	.	16b\JJ
4AA/	.	8cc#y\L
.	.	8dd\
4r	.	8ee\
.	.	8ffn\J)
!!LO:LB:g=original
=34	=34	=34
8AA\L	7 #	2.gg\
(16G\L	.	.
16Fn\JJ)	.	.
8E/L	.	.
8D/	.	.
8C#X/	.	.
8BB/J	.	.
=35	=35	=35
8AA\L	#	(8cc#X\L
(16G\L	.	8ee\J)
16Fn\JJ)	.	.
8E\L	.	4.gg\
8D\J	.	.
8C#X/L	.	.
16BB/L	.	8aa\
16AA/JJ	.	.
=36	=36	=36
4D\	#	8ff#X\L
.	.	(16dd\L
.	.	16ee\JJ
4DD/	.	8ff#y\L
.	.	8gg\
4r	.	8aa\
.	.	8bb-X\J)
=37	=37	=37
8D\L	7	2.ccc\
(16c\L	.	.
16B-X\JJ)	.	.
8A\L	.	.
8G\	.	.
8F#y\	.	.
8E\J	.	.
=38	=38	=38
8D\L	7	(8ff#y\L
(16c\L	.	8aa\J)
16B-X\JJ)	.	.
8A\L	.	4.ccc\
8G\J	.	.
8F#y\L	.	.
16E\L	.	8ddd\
16D\JJ	.	.
=39	=39	=39
2G\	-	8.bb-X\L
.	.	16aa\Jk
.	.	8gg\L
.	.	8ffn\
4r	.	8ee-X\
.	.	8dd\J
!!LO:LB:g=original
=40	=40	=40
2GG/	6-r	8ee-X\L
.	.	8B-X/
.	.	8G/
.	.	8gg\
4r	.	8aa\
.	.	8bb-X\J
=41	=41	=41
2Fn\	.	8.aa\L
.	.	16gg\Jk
.	.	8ffn\L
.	.	8ee\
4r	.	8dd\
.	.	8cc#X\J
=42	=42	=42
2FFn/	6	8dd\L
.	.	8fn\
.	.	8d\
.	.	8ffn\
4r	.	8gg\
.	.	8aa\J
=43	=43	=43
2E\	.	8.gg\L
.	.	16ffn\Jk
.	.	8ee\L
.	.	8dd\
4r	.	8cc#X\
.	.	8b\J
=44	=44	=44
2AA/	#	8cc#X/L
.	.	8g/
.	.	8A/
.	.	8ee/
4r	.	8ffn/
.	.	8gg/J
=45	=45	=45
2D\	n	8.ffn\L
.	.	16ee\Jk
.	.	8dd\L
.	.	8cc\
4r	.	8b\
.	.	8a\J
=46	=46	=46
4E\	#	8.gg#X\L
.	.	16ffn\Jk
4G#X\	6	8ee\L
.	.	8dd\
4E\	#	8cc\
.	.	8b\J
!!LO:PB:g=original
=47	=47	=47
4A\	.	8cc\L
.	.	8ee\
4D\	7	8aa\
.	.	8cc\
4E\	#	8e\
.	.	8gg#X\J
=48	=48	=48
4AA/	.	4aa\
4A\	.	4r
4AA/	.	4r
=49	=49	=49
4Fn\	6	2.r
4GG#X/	6	.
4E\	7 #	.
=50	=50	=50
8.C/L	6	4r
16BB/Jk	.	.
4AA/	.	4ee\
4r	.	4e/
=51	=51	=51
4A\	.	4cc\
4B\	#	4d#X/
4D#X\	6	4b\
=52	=52	=52
4E\	.	8.g/L
.	.	16f#y/Jk
4e\	.	4e/
4E\	.	8r
.	.	(16gg\LL
.	.	16ff#y\JJ)
=53	=53	=53
4c\	.	8ee\L
.	.	(16dd\L
.	.	16cc\JJ)
4D#X\	6	8b\L
.	.	8ff#y\J
4B\	#	8dd#X\L
.	.	(16cc#X\L
.	.	16b\JJ)
!!LO:LB:g=original
=54	=54	=54
8.G\L	6	4ee\
16F#y\Jk	.	.
4E\	.	8r
.	.	8ee\
4e\	.	8ccc\L
.	.	8ee\J
=55	=55	=55
4d#X\	6	8ff#y\L
.	.	8bb\J
8.dn\L	.	8r
.	.	8ff#y\
16c#X\Jk	.	.
4d\	6	8bb\L
.	.	8dd\J
=56	=56	=56
4c#X\	6	8ee\L
.	.	8aa\J
8.cn\L	.	8r
.	.	8ee\
16B\Jk	.	.
4c\	6	8aa\L
.	.	8ee\J
=57	=57	=57
2B\	#	8.dd#X\L
.	.	16cc#X\Jk
.	.	8dd#y\L
.	.	8ee\
4r	.	8ff#y\
.	.	8gg\J
=58	=58	=58
(4BB/	7 #	8aa\L
.	.	(16aa\L
.	.	16gg\JJ)
4D#X\)	6	8ff#y\L
.	.	8ee\
4F#y\	6#/ 4	8dd#X\
.	.	8cc#X\J
=59	=59	=59
8A\L	9 4#|	(4b\
(16A\L	.	.
16G\JJ)	.	.
8F#y\L	6#/	4dd#X\)
8E\	.	.
8D#X\	6	4ff#y\
8C#X\J	.	.
!!LO:LB:g=original
=60	=60	=60
(4BB/	7 #	8aa\L
.	.	(16aa\L
.	.	16gg\JJ)
4D#X\)	6	8ff#y\L
.	.	8ee\
4F#y\	6#/ 4	8dd#X\
.	.	8cc#X\J
=61	=61	=61
8A\L	9 4#|	(4b\
(16A\L	.	.
16G\JJ)	.	.
8F#y\L	6#/	4dd#X\)
8E\	.	.
8D#X\	6	4ff#y\
8C#X\J	.	.
=62	=62	=62
2BB/	7 #	4.aa\
.	.	8b\
4E\	.	8gg\L
.	.	8ee\J
=63	=63	=63
4.A\	6nr	8ffn\L
.	.	(16aa\L
.	.	16gg\JJ)
.	.	8aa\L
8B\	7 #	8dd#X\
4c\	.	8ee\
.	.	8cc\J
=64	=64	=64
4G\	6	8b/L
.	.	(16a/L
.	.	16g/JJ)
4A\	6 5	8f#y/L
.	.	8e/
4B\	#	8B/
.	.	8dd#X/J
=65	=65	=65
2E\	.	8ee\L
.	.	(16gg\L
.	.	16ff#y\JJ)
.	.	8ee\L
.	.	8dd\
4r	.	8cc\
.	.	8b\J
!!LO:LB:g=original
=66	=66	=66
2C/	6	8a\L
.	.	(16cc\L
.	.	16b\JJ)
.	.	8a/L
.	.	8g/
4r	.	8f#y/
.	.	8e/J
=67	=67	=67
2BB/	7 #	8d#X/L
.	.	(16a/L
.	.	16g/JJ)
.	.	8f#y/L
.	.	8e/
4r	.	8d#y/
.	.	8c#y/J
=68	=68	=68
8BB\L	#	(4B/
(16A\L	.	.
16G\JJ)	.	.
8F#y\L	6#/	4d#X/)
8E\	.	.
8D#X\	6	4f#y/
8C#X\J	.	.
=69	=69	=69
8BB\L	#	(4b\
(16A\L	.	.
16G\JJ)	.	.
8F#y\L	6#/	4dd#X\)
8E\	.	.
8D#X\	6	4ff#y\
8C#X\J	.	.
=70	=70	=70
2BB/	7 #	4.aa\
.	.	(16bb\LL
.	.	16aa\JJ)
4E\	.	(16gg\LL
.	.	16ff#y\)
.	.	(16ee\
.	.	16dd\JJ)
=71	=71	=71
8A\L	.	8cc\L
8F#y\J	.	16b\L
.	.	16a\JJ
8G\L	6	8b\L
8A\J	.	8ee\
8B\L	5 4	8f#y\
8BB\J	#	8dd#X\J
=72	=72	=72
2.EE/;	.	2.e/;
=:|!	=:|!	=:|!
*-	*-	*-
!!!SMS: RV 16 / Estienne Roger, Amsterdam [facs.]
!!!ENC: Fran Bennion; rev. 04/21 E. Correia
!!!END: 2004/12/02
!!!ONB: Converted from MuseData with musedata2hum on Sat May 11 12:07:52 2024
!!!YEM: (C) 2004, 2004 Center for Computer Assisted Research in the Humanities.
!!!system-decoration: [(s1,s2)]
!!!URL-info: https://wiki.ccarh.org/wiki/MuseData:_Antonio_Vivaldi#Op._2:_Sonate_a_violino_e_basso_per_il_cembalo
!!!URL-pdf: https://pdf.musedata.org/vivaldi-op02-no09.pdf#page=1 MuseData edition
!!!URL-pdf: http://conquest.imslp.info/files/imglnks/usimg/b/b7/IMSLP99075-PMLP183164-Vivaldi_-_Sonatas_Op2.pdf#page=30 Estienne Roger Amsterdam: Estienne Roger, No.2, n.d.[1711].
!!!URL-youtube: https://www.youtube.com/watch?v=SiijZmW9jKM&t=3328s L'Arte dell'Arco
!!!title: @{OTL}, mov. @{OMV}
!!!filter-chint: chint -mid
!!!EEV: 2024/05/11
!!!source-file: https://bitbucket.org/musedata/vivaldi/src/master/roger/op2/no09/stage2/01/01
!!!source-file: https://bitbucket.org/musedata/vivaldi/src/master/roger/op2/no09/stage2/01/02
